X: 14
T: Morrison's
Z: CreadurMawnOrganig
S: https://thesession.org/tunes/71#setting48150
R: jig
M: 6/8
L: 1/8
K: Edor
|:E3 BGB|EBE AFD|~E3 (3B/c/B/AB|dcB AFD|
~E3 BGB|EBE AFD|GBG FAB|dAG FED:|
|:Bee dee|aee fed|Bee fee|
[1 ~a2 g fed|Bee dee|aee fed|gfe d2A|BAG FED:|
[2 f/g/af def|g2g gfe|def (3g/a/g/fg|edc d2A|BAG FED||

